assets/img/braze_icons/droplets-01.svg

<svg fill="none" height="24" viewBox="0 0 24 24" width="24" xmlns="http://www.w3.org/2000/svg"><g fill="#801ed7"><path d="m5 1c-.34622 0-.6678.17908-.85012.47341-.04573.07452-.09115.14923-.13615.2242-.08467.14103-.20487.34373-.34878.5933-.28732.49828-.67156 1.18753-1.057 1.94834-.38402.758-.77722 1.60266-1.07665 2.40895-.28978.78034-.5313 1.62632-.5313 2.3518 0 2.2091 1.79086 4 4 4s4-1.7909 4-4c0-.72548-.24152-1.57146-.5313-2.3518-.29943-.80629-.69263-1.65095-1.07665-2.40895-.38544-.76081-.76968-1.45006-1.05701-1.94834-.1439-.24957-.2641-.45227-.34877-.5933-.045-.07497-.09042-.14968-.13615-.2242-.18232-.29433-.5039-.47341-.85012-.47341z"/><path d="m9 16c0 3.866 3.134 7 7 7s7-3.134 7-7c0-1.2647-.429-2.8178-1.0001-4.3555-.5806-1.5636-1.3488-3.21588-2.1078-4.71407-.7605-1.501-1.5197-2.86305-2.0883-3.84908-.2845-.49344-.5219-.89375-.6886-1.17142-.0834-.13886-.1491-.24712-.1943-.32109l-.0708-.11543c-.1823-.29433-.5039-.47341-.8501-.47341s-.6678.17908-.8501.47341l-.0708.11543c-.0452.07397-.1109.18223-.1943.32109-.1667.27767-.4041.67798-.6886 1.17142-.5686.98603-1.3278 2.34808-2.0883 3.84908-.759 1.49819-1.5272 3.15047-2.1078 4.71407-.57108 1.5377-1.0001 3.0908-1.0001 4.3555z"/></g></svg>

<svg width="24" height="24" viewBox="0 0 24 24" fill="none" xmlns="http://www.w3.org/2000/svg">
<path d="M5 1C4.65378 1 4.3322 1.17908 4.14988 1.47341C4.10415 1.54793 4.05873 1.62264 4.01373 1.69761C3.92906 1.83864 3.80886 2.04134 3.66495 2.29091C3.37763 2.78919 2.99339 3.47844 2.60795 4.23925C2.22393 4.99725 1.83073 5.84191 1.5313 6.6482C1.24152 7.42854 1 8.27452 1 9C1 11.2091 2.79086 13 5 13C7.20914 13 9 11.2091 9 9C9 8.27452 8.75848 7.42854 8.4687 6.6482C8.16927 5.84191 7.77607 4.99725 7.39205 4.23925C7.00661 3.47844 6.62237 2.78919 6.33504 2.29091C6.19114 2.04134 6.07094 1.83864 5.98627 1.69761C5.94127 1.62264 5.89585 1.54793 5.85012 1.47341C5.6678 1.17908 5.34622 1 5 1Z" fill="#801ED7"/>
<path d="M9 16C9 19.866 12.134 23 16 23C19.866 23 23 19.866 23 16C23 14.7353 22.571 13.1822 21.9999 11.6445C21.4193 10.0809 20.6511 8.42862 19.8921 6.93043C19.1316 5.42943 18.3724 4.06738 17.8038 3.08135C17.5193 2.58791 17.2819 2.1876 17.1152 1.90993C17.0318 1.77107 16.9661 1.66281 16.9209 1.58884L16.8501 1.47341C16.6678 1.17908 16.3462 1 16 1C15.6538 1 15.3322 1.17908 15.1499 1.47341L15.0791 1.58884C15.0339 1.66281 14.9682 1.77107 14.8848 1.90993C14.7181 2.1876 14.4807 2.58791 14.1962 3.08135C13.6276 4.06738 12.8684 5.42943 12.1079 6.93043C11.3489 8.42862 10.5807 10.0809 10.0001 11.6445C9.42902 13.1822 9 14.7353 9 16Z" fill="#801ED7"/>
</svg>
